X:1
T:St. Basil the Great, 76.76 D
T:St. Basil the Great, 76.76 D
T:Charles Villiers Stanford, 1916
T:Public Domain Courtesy of the Cyber Hymnal™
C:Charles Villiers Stanford, 1916
Z:Public Domain
Z:Courtesy of the Cyber Hymnal™
%%score ( 1 2 ) ( 3 4 )
L:1/8
Q:1/4=115
M:4/4
K:D
V:1 treble 
V:2 treble 
V:3 bass 
V:4 bass 
V:1
 [DF]2 | [DG]2 [EA]2 [GB]2 [Gc]2 | [Fd]4 [Ec]2 [DA]2 | [DB]3 [DA] [DF]2 [E^G]2 | [EA]6 [CF]2 | %5
 [DG]2 [DA]2 [DB]2 [Ec]2 | [Fd]4 [Fc]2 [FB]2 | [EB]2 [Gc]2 [F^A]3 [FB] | [FB]6 [Fd]2 | %9
 [Fc]2 [GB]2 [DA]2 [B,D]2 | ([B,D]2 [CE]2) [DF]2 [DF]2 | [CA]2 [DA]2 [B,G]2 ([DF]E) | [CF]6 [DF]2 | %13
 [DB]3 [DA] D2 [CE]2 | [DF]4 [DF]2 [DG]2 | [DA]2 [DB]2 [Gd]2 [Gc]2 | [Fd]6 |] %17
V:2
 x2 | x8 | x8 | x8 | x8 | x8 | x8 | x8 | x8 | x8 | x8 | x7 E | x8 | x4 D2 x2 | x8 | x8 | x6 |] %17
V:3
 [D,A,]2 | B,2 [A,C]2 [G,D]2 [E,G,]2 | [D,A,]4 A,2 [F,A,]2 | G,3 [F,A,] [B,,B,]2 [E,B,]2 | %4
 [A,,C]6 A,2 | [G,B,]2 [F,A,]2 G,2 [E,G,]2 | (B,2 ^G,2) [C,^A,]2 [D,B,]2 | %7
 [E,G,]2 [E,E]2 [F,C]3 [B,,^D] | [B,,^D]6 [B,=D]2 | [A,D]2 [G,D]2 [F,A,]2 [G,B,]2 | %10
 [E,G,]4 [D,A,]2 [B,,B,]2 | [F,A,]2 [D,F,]2 [E,G,]2 B,2 | [F,^A,]6 [B,,B,]2 | %13
 G,3 [F,A,] [G,B,]2 [E,G,]2 | A,4 [B,,B,]2 [G,B,]2 | [F,A,]2 G,2 [E,B,]2 A,2 | [D,A,]6 |] %17
V:4
 x2 | B,2 x6 | x4 A,2 x2 | G,3 x5 | x6 A,2 | x4 G,2 x2 | B,,4 x4 | x8 | x8 | x8 | x8 | x6 (F,G,) | %12
 x8 | G,3 x5 | (D,2 C,2) x4 | x2 G,2 A,2 x2 | x6 |] %17

